components/Common/Svg/svgs/handPointing.svg

<svg width="40" height="40" viewBox="0 0 40 40" fill="none" xmlns="http://www.w3.org/2000/svg">
<path fill-rule="evenodd" clip-rule="evenodd" d="M14.8647 7.30196C15.5223 6.64441 16.4141 6.275 17.344 6.275C18.2739 6.275 19.1658 6.64441 19.8233 7.30196C20.4809 7.95951 20.8503 8.85134 20.8503 9.78125V18.8125C20.8503 19.2819 20.4697 19.6625 20.0003 19.6625C19.5308 19.6625 19.1503 19.2819 19.1503 18.8125V9.78125C19.1503 9.3022 18.96 8.84278 18.6212 8.50404C18.2825 8.1653 17.8231 7.975 17.344 7.975C16.865 7.975 16.4055 8.1653 16.0668 8.50404C15.7281 8.84278 15.5378 9.3022 15.5378 9.78125V25.8869C15.5378 26.2716 15.2794 26.6084 14.9078 26.7079C14.5362 26.8075 14.144 26.6451 13.9516 26.3119L11.0394 21.2677L11.039 21.2671C10.9205 21.0615 10.7627 20.8812 10.5745 20.7366C10.3863 20.592 10.1715 20.486 9.94224 20.4244C9.71303 20.3629 9.47394 20.3472 9.23863 20.3781C9.00333 20.409 8.77643 20.486 8.5709 20.6047C8.36537 20.7233 8.18524 20.8814 8.0408 21.0697C7.89636 21.258 7.79045 21.4729 7.72912 21.7022C7.6678 21.9314 7.65225 22.1706 7.68337 22.4058C7.7145 22.6411 7.79169 22.8679 7.91052 23.0734C7.92213 23.0934 7.93292 23.114 7.94285 23.1349C10.1084 27.7038 11.7944 30.6562 13.611 32.4778C15.3636 34.2354 17.262 34.9625 20.0003 34.9625C21.2839 34.9625 22.555 34.7097 23.741 34.2184C24.927 33.7272 26.0045 33.0072 26.9122 32.0995C27.8199 31.1918 28.5399 30.1142 29.0312 28.9282C29.5224 27.7423 29.7753 26.4712 29.7753 25.1875V19.875C29.7753 19.396 29.585 18.9365 29.2462 18.5978C28.9075 18.2591 28.4481 18.0688 27.969 18.0688C27.49 18.0688 27.0305 18.2591 26.6918 18.5978C26.3531 18.9365 26.1628 19.396 26.1628 19.875C26.1628 20.3444 25.7822 20.725 25.3128 20.725C24.8433 20.725 24.4628 20.3444 24.4628 19.875C24.4628 18.9451 24.8322 18.0533 25.4897 17.3957C26.1473 16.7382 27.0391 16.3688 27.969 16.3688C28.8989 16.3688 29.7908 16.7382 30.4483 17.3957C31.1059 18.0533 31.4753 18.9451 31.4753 19.875V25.1875C31.4753 26.6944 31.1785 28.1866 30.6018 29.5788C30.0251 30.971 29.1799 32.236 28.1143 33.3016C27.0488 34.3671 25.7838 35.2123 24.3916 35.789C22.9993 36.3657 21.5072 36.6625 20.0003 36.6625C16.8705 36.6625 14.5189 35.7959 12.4072 33.6782C10.3637 31.629 8.57434 28.4339 6.42056 23.8924C6.20032 23.5021 6.05685 23.0732 5.99806 22.6288C5.93764 22.1721 5.96782 21.7079 6.08687 21.2629C6.20592 20.8178 6.41151 20.4006 6.69188 20.0351C6.97226 19.6695 7.32193 19.3628 7.7209 19.1324C8.11987 18.9021 8.56033 18.7526 9.01709 18.6926C9.47386 18.6326 9.93798 18.6631 10.3829 18.7825C10.8279 18.902 11.2449 19.1079 11.6102 19.3886C11.9754 19.6691 12.2817 20.0188 12.5116 20.4177C12.5117 20.4178 12.5117 20.4179 12.5117 20.4179C12.5118 20.4181 12.5119 20.4182 12.512 20.4184L13.8378 22.7147V9.78125C13.8378 8.85134 14.2072 7.95951 14.8647 7.30196Z" fill="#161616"/>
<path fill-rule="evenodd" clip-rule="evenodd" d="M20.1769 15.802C20.8344 15.1444 21.7262 14.775 22.6562 14.775C23.5861 14.775 24.4779 15.1444 25.1354 15.802C25.793 16.4595 26.1624 17.3513 26.1624 18.2813V19.875C26.1624 20.3444 25.7818 20.725 25.3124 20.725C24.843 20.725 24.4624 20.3444 24.4624 19.875V18.2813C24.4624 17.8022 24.2721 17.3428 23.9334 17.004C23.5946 16.6653 23.1352 16.475 22.6562 16.475C22.1771 16.475 21.7177 16.6653 21.3789 17.004C21.0402 17.3428 20.8499 17.8022 20.8499 18.2813V18.8125C20.8499 19.2819 20.4693 19.6625 19.9999 19.6625C19.5305 19.6625 19.1499 19.2819 19.1499 18.8125V18.2813C19.1499 17.3513 19.5193 16.4595 20.1769 15.802Z" fill="#161616"/>
<path fill-rule="evenodd" clip-rule="evenodd" d="M12.6212 4.58722C13.8912 3.22651 15.6268 2.45 17.4499 2.45C19.273 2.45 21.0086 3.22651 22.2786 4.58722C23.5467 5.94596 24.2499 7.77701 24.2499 9.675C24.2499 10.1444 23.8693 10.525 23.3999 10.525C22.9305 10.525 22.5499 10.1444 22.5499 9.675C22.5499 8.19148 21.9993 6.77952 21.0358 5.74717C20.0741 4.7168 18.7828 4.15 17.4499 4.15C16.117 4.15 14.8257 4.7168 13.864 5.74717C12.9005 6.77952 12.3499 8.19148 12.3499 9.675C12.3499 10.1444 11.9693 10.525 11.4999 10.525C11.0305 10.525 10.6499 10.1444 10.6499 9.675C10.6499 7.77701 11.3531 5.94596 12.6212 4.58722Z" fill="#161616"/>
</svg>

<svg width="40" height="40" viewBox="0 0 40 40" fill="none" xmlns="http://www.w3.org/2000/svg"><path fill-rule="evenodd" clip-rule="evenodd" d="M14.865 7.302a3.506 3.506 0 0 1 5.985 2.48v9.03a.85.85 0 0 1-1.7 0v-9.03a1.806 1.806 0 1 0-3.612 0v16.105a.85.85 0 0 1-1.586.425l-2.913-5.044a1.807 1.807 0 1 0-3.128 1.805l.032.062c2.165 4.569 3.851 7.521 5.668 9.343 1.753 1.757 3.651 2.484 6.39 2.484a9.774 9.774 0 0 0 9.774-9.775v-5.312a1.806 1.806 0 1 0-3.612 0 .85.85 0 0 1-1.7 0 3.507 3.507 0 0 1 7.012 0v5.313A11.475 11.475 0 0 1 20 36.663c-3.13 0-5.481-.867-7.593-2.985-2.043-2.049-3.833-5.244-5.986-9.786a3.507 3.507 0 0 1 6.09-3.474h.001l1.326 2.297V9.78c0-.93.37-1.821 1.027-2.479Z" fill="#161616"/><path fill-rule="evenodd" clip-rule="evenodd" d="M20.177 15.802a3.506 3.506 0 0 1 5.985 2.48v1.593a.85.85 0 0 1-1.7 0v-1.594a1.807 1.807 0 0 0-3.612 0v.532a.85.85 0 0 1-1.7 0v-.532c0-.93.37-1.822 1.027-2.479ZM12.621 4.587c1.27-1.36 3.006-2.137 4.829-2.137s3.559.777 4.829 2.137c1.268 1.359 1.97 3.19 1.97 5.088a.85.85 0 0 1-1.7 0c0-1.484-.55-2.895-1.513-3.928-.962-1.03-2.253-1.597-3.586-1.597-1.333 0-2.624.567-3.586 1.597C12.9 6.78 12.35 8.191 12.35 9.675a.85.85 0 0 1-1.7 0c0-1.898.703-3.729 1.971-5.088Z" fill="#161616"/></svg>
